X: 1
T: K\"arleksvalsen
C: efter Anders Sahlstr\"om
S: Bruce Sagan's "scanfolk" session archive 2020-10-25
S: BlueRoseMusic.org #1166 (Karen Myers)
F: https://app.box.com/s/u6iiren0igvsukrhdducy7orq72jayq8/file/734013995925
R: waltz
Z: 2021 John Chambers <jc:trillian.mit.edu>
M: 3/4
L: 1/8
K: G
|:\
B2 A2 B2 | G3 G G2 | B2 A2 G2 | d3 d d2 |\
d2 c2 B2 | c3 c c2 | c2 B2 A2 | B3 B B2 |
B2 A2 B2 | G3 G G2 | B2 A2 G2 | d4 g2 |\
(gf) (fe) (ed) |(dc) (cA) (AF) | (DF) (Ac) (B<A) |1 G4 d2- :|2 G4 D2- |
|:\
G3 F) GA | (B3 A) Bc | (d3 e) dc | B2 G2 E2 |\
(c3 d) cB | A2 F2 D2 | (B3 c) BA | G2 B,2 D2 |
(G2 F) GA | (B3 A) Bc | (d3 e) dc | B2 G2 E2 |\
(c3 d) cB | (AB) (AG) (FE) | (DF) (Ac) (B<A) |1 G4 D2 :|2 G6 |]
